X: 101438
T: James Gannon's #1
S: B.Breathnach: "Ceol Rince na hEireann" II/55 (gan ainm)
Z: B.Black
L: 1/8
M: 12/8
Q: 350
R: slide
K: D
E|DED d2B A3-A2 E|DED d2A B2E E3|
DED d2B A3 f2g|a2f e2g f2d d2 :|
f|a2f d2f g3 f2g|a2f d2f e2c A2g|
a2f d2f g3 f2g|a2f e2g f2d d2 :|
